X:356
T:Big Rory
C:Nigel Gatherer
Z:Nigel Gatherer
L:1/8
M:4/4
K:Amix
z|c2 (3BcB A3 z|E>A A2 cded|cABG A2 Bc|dBGB dBed|
c2 (3BcB A3 z|E>A A2 cdef|gfge dBGB|ecdB A3:|
e|aece Acef|g2 Bg dgBg|aece Acef|gdBe cA Ae|
aece Acef|g2 Bg dg B2|c2 (3BcB Aceg|fdBe cA A:|
<end>
<start>
